src/lib/packages/icons/src/assets/filled/deviantart.svg

<svg width="24" height="24" viewBox="0 0 24 24" fill="none" xmlns="http://www.w3.org/2000/svg">
<path d="M17 6.59998L13.79 12.61L14.08 12.9H16.99V17.39H11.55L11.09 17.65L9.47998 20.66L9.13998 20.99H5.97998V20.98V17.4L9.18997 11.39L8.88998 11.09H5.98996V6.58997H11.43L11.9 6.31998L13.5 3.30997L13.84 2.97998H16.99V6.57996L17 6.59998Z" fill="currentColor"/>
</svg>

<svg xmlns="http://www.w3.org/2000/svg" width="24" height="24" fill="none"><path fill="currentColor" d="m17 6.6-3.21 6.01.29.29h2.91v4.49h-5.44l-.46.26-1.61 3.01-.34.33H5.98V17.4l3.21-6.01-.3-.3h-2.9v-4.5h5.44l.47-.27 1.6-3.01.34-.33h3.15v3.6l.01.02Z"/></svg>
